assets/img/logo.svg

<svg width="156" height="44" viewBox="0 0 156 44" fill="none" xmlns="http://www.w3.org/2000/svg">
<path d="M16.0235 14.5271V29.7663H14.0719V27.5059C13.2422 28.505 12.4173 29.0105 11.3802 29.5147C10.3525 30.0189 9.11725 30.1585 7.89156 30.1585C5.7136 30.1585 3.8515 29.3788 2.30524 27.8193C0.768414 26.2506 0 24.3457 0 22.1047C0 19.9103 0.777842 18.0334 2.33353 16.474C3.88921 14.9146 5.76075 14.1349 7.94813 14.1349C9.21154 14.1349 10.362 14.3032 11.3802 14.8355C12.4079 15.3677 13.2987 15.9498 14.0719 17.0143V14.5271H16.0235ZM8.1037 16.0258C7.00058 16.0258 5.98231 16.2966 5.0489 16.8382C4.11549 17.3704 3.37065 18.1221 2.81437 19.0932C2.26753 20.0644 1.9941 21.0915 1.9941 22.1747C1.9941 23.2485 2.27224 24.2757 2.82852 25.2561C3.38479 26.2366 4.12963 27.0023 5.06305 27.5532C6.00588 28.0948 7.01472 28.3656 8.08956 28.3656C9.17382 28.3656 10.2015 28.0948 11.1726 27.5532C12.1438 27.0116 12.8886 26.2786 13.4072 25.3542C13.9352 24.4298 14.1992 23.3886 14.1992 22.2307C14.1992 20.4659 13.6099 18.9905 12.4313 17.8046C11.2622 16.6187 9.81967 16.0258 8.1037 16.0258Z" fill="white"/>
<path d="M18.6825 7.84254V29.7662H20.6342V27.5058C21.4639 28.505 22.2887 29.0104 23.3258 29.5147C24.3535 30.0189 25.5888 30.1584 26.8145 30.1584C28.9925 30.1584 30.8546 29.3787 32.4008 27.8193C33.9376 26.2506 34.7061 24.3457 34.7061 22.1046C34.7061 19.9103 33.9282 18.0334 32.3725 16.474C30.8168 14.9146 28.9453 14.1349 26.7579 14.1349C25.4945 14.1349 24.3441 14.3032 23.3258 14.8354C22.2981 15.3677 21.4073 15.9497 20.6342 17.0142V7.84254H18.6825ZM26.6024 16.0258C27.7055 16.0258 28.7237 16.2966 29.6572 16.8382C30.5906 17.3704 31.3354 18.1221 31.8917 19.0932C32.4385 20.0643 32.712 21.0915 32.712 22.1747C32.712 23.2485 32.4338 24.2757 31.8775 25.2561C31.3213 26.2366 30.5764 27.0023 29.643 27.5532C28.7002 28.0948 27.6913 28.3656 26.6165 28.3656C25.5322 28.3656 24.5045 28.0948 23.5334 27.5532C22.5623 27.0116 21.8174 26.2786 21.2989 25.3542C20.7709 24.4297 20.5069 23.3886 20.5069 22.2307C20.5069 20.4659 21.0962 18.9905 22.2747 17.8046C23.4438 16.6187 24.8864 16.0258 26.6024 16.0258Z" fill="white"/>
<circle cx="64.221" cy="21.596" r="21.596" fill="#6ADF91"/>
<path d="M73.5793 12.9576L65.3325 32.3941L52.7031 20.3951L73.5793 12.9576Z" fill="white"/>
<path d="M116.937 24.3269L118.595 25.1984C118.052 26.2667 117.424 27.1288 116.712 27.7848C116 28.4408 115.198 28.9421 114.308 29.2888C113.418 29.6262 112.411 29.7949 111.286 29.7949C108.793 29.7949 106.844 28.9796 105.439 27.349C104.033 25.7091 103.33 23.8583 103.33 21.7967C103.33 19.8569 103.925 18.1279 105.115 16.6098C106.624 14.6794 108.643 13.7142 111.174 13.7142C113.779 13.7142 115.859 14.7028 117.415 16.6801C118.521 18.0764 119.083 19.8194 119.102 21.9092H105.354C105.392 23.6896 105.959 25.1515 107.055 26.2948C108.151 27.4287 109.506 27.9956 111.117 27.9956C111.895 27.9956 112.65 27.8598 113.381 27.588C114.121 27.3162 114.749 26.9555 115.264 26.5056C115.78 26.0558 116.337 25.3296 116.937 24.3269ZM116.937 20.2083C116.674 19.1588 116.29 18.32 115.784 17.6922C115.288 17.0643 114.627 16.5583 113.802 16.1741C112.978 15.7899 112.111 15.5978 111.202 15.5978C109.702 15.5978 108.414 16.0804 107.336 17.0456C106.549 17.7484 105.954 18.8027 105.551 20.2083H116.937Z" fill="white"/>
<path d="M137.317 14.1712V29.4104H135.365V27.15C134.535 28.1491 133.71 28.6545 132.673 29.1588C131.646 29.663 130.41 29.8025 129.185 29.8025C127.007 29.8025 125.144 29.0228 123.598 27.4634C122.061 25.8947 121.293 23.9898 121.293 21.7487C121.293 19.5544 122.071 17.6775 123.626 16.1181C125.182 14.5587 127.054 13.779 129.241 13.779C130.505 13.779 131.655 13.9473 132.673 14.4795C133.701 15.0118 134.592 15.5938 135.365 16.6584V14.1712H137.317ZM129.397 15.6699C128.294 15.6699 127.275 15.9407 126.342 16.4823C125.408 17.0145 124.664 17.7662 124.107 18.7373C123.56 19.7084 123.287 20.7356 123.287 21.8188C123.287 22.8926 123.565 23.9198 124.121 24.9002C124.678 25.8807 125.423 26.6464 126.356 27.1973C127.299 27.7389 128.308 28.0097 129.383 28.0097C130.467 28.0097 131.494 27.7389 132.466 27.1973C133.437 26.6557 134.182 25.9227 134.7 24.9983C135.228 24.0738 135.492 23.0327 135.492 21.8748C135.492 20.11 134.903 18.6346 133.724 17.4487C132.555 16.2628 131.113 15.6699 129.397 15.6699Z" fill="white"/>
<path d="M155.999 7.48664V29.4104H154.047V27.15C153.218 28.1491 152.393 28.6546 151.356 29.1588C150.328 29.663 149.093 29.8026 147.867 29.8026C145.689 29.8026 143.827 29.0229 142.281 27.4634C140.744 25.8947 139.976 23.9898 139.976 21.7488C139.976 19.5544 140.753 17.6775 142.309 16.1181C143.865 14.5587 145.736 13.779 147.924 13.779C149.187 13.779 150.338 13.9473 151.356 14.4796C152.384 15.0118 153.274 15.5939 154.047 16.6584V7.48664H155.999ZM148.079 15.6699C146.976 15.6699 145.958 15.9407 145.024 16.4823C144.091 17.0145 143.346 17.7662 142.79 18.7373C142.243 19.7085 141.97 20.7356 141.97 21.8188C141.97 22.8926 142.248 23.9198 142.804 24.9002C143.36 25.8807 144.105 26.6464 145.039 27.1973C145.981 27.7389 146.99 28.0097 148.065 28.0097C149.149 28.0097 150.177 27.7389 151.148 27.1973C152.119 26.6557 152.864 25.9227 153.383 24.9983C153.911 24.0738 154.175 23.0327 154.175 21.8748C154.175 20.11 153.585 18.6346 152.407 17.4487C151.238 16.2628 149.795 15.6699 148.079 15.6699Z" fill="white"/>
<path d="M99.1157 29.6072L101.812 29.6072L101.812 27.861L99.1157 27.861C98.7315 27.861 98.3636 27.783 98.0187 27.6243C97.6882 27.4815 97.3946 27.2837 97.1422 27.0314C96.8879 26.7771 96.689 26.4807 96.546 26.147C96.3997 25.8058 96.327 25.4458 96.327 25.0723L96.327 7.65319L94.5664 7.65319L94.5664 25.0723C94.5664 25.7126 94.6855 26.3007 94.9191 26.8431C95.157 27.3952 95.4814 27.87 95.8925 28.2727L95.8967 28.2769C96.3104 28.6906 96.7917 29.0162 97.3449 29.2545C97.8872 29.4882 98.4753 29.6072 99.1157 29.6072Z" fill="white"/>
<path fill-rule="evenodd" clip-rule="evenodd" d="M102.011 29.8073L102.011 27.661L99.1155 27.661C98.759 27.661 98.4198 27.5888 98.1021 27.4426L98.0978 27.4406C97.7899 27.3076 97.5175 27.124 97.2835 26.89C97.0476 26.6541 96.8629 26.3792 96.7296 26.0682C96.5942 25.7523 96.5268 25.4192 96.5268 25.0723L96.5268 7.45319L94.3662 7.45319L94.3662 25.0723C94.3662 25.7382 94.4902 26.3534 94.7352 26.9222C94.9829 27.4971 95.3217 27.9935 95.7516 28.4148L95.7551 28.4183C96.1871 28.8503 96.6896 29.1901 97.2656 29.4382C97.8344 29.6832 98.4496 29.8073 99.1155 29.8073L102.011 29.8073ZM95.8965 28.2769L95.8923 28.2727C95.4812 27.87 95.1568 27.3952 94.9189 26.8431C94.6853 26.3007 94.5662 25.7126 94.5662 25.0723L94.5662 7.65319L96.3268 7.65319L96.3268 25.0723C96.3268 25.4458 96.3995 25.8058 96.5458 26.147C96.6888 26.4807 96.8877 26.7771 97.142 27.0314C97.3944 27.2837 97.688 27.4815 98.0185 27.6243C98.3634 27.783 98.7313 27.861 99.1155 27.861L101.811 27.861L101.811 29.6073L99.1155 29.6073C98.4752 29.6073 97.887 29.4882 97.3447 29.2545C96.7915 29.0162 96.3102 28.6906 95.8965 28.2769Z" fill="white"/>
</svg>

<svg width="156" height="44" fill="none" xmlns="http://www.w3.org/2000/svg"><path d="M16.023 14.527v15.24h-1.951v-2.261c-.83.999-1.655 1.505-2.692 2.009-1.028.504-2.263.643-3.488.643-2.178 0-4.04-.78-5.587-2.339C.768 26.251 0 24.346 0 22.105c0-2.195.778-4.072 2.334-5.631 1.555-1.56 3.427-2.34 5.614-2.34 1.264 0 2.414.17 3.432.701 1.028.533 1.919 1.115 2.692 2.18v-2.488h1.951zm-7.92 1.499a5.98 5.98 0 00-3.054.812 5.932 5.932 0 00-2.235 2.255 6.187 6.187 0 00-.82 3.082c0 1.073.278 2.1.835 3.081a6.113 6.113 0 002.234 2.297 5.978 5.978 0 003.027.813 6.235 6.235 0 003.083-.813c.97-.541 1.716-1.274 2.234-2.199.528-.924.792-1.965.792-3.123 0-1.765-.59-3.24-1.768-4.426-1.169-1.186-2.611-1.78-4.327-1.78zm10.58-8.183v21.923h1.951v-2.26c.83.999 1.655 1.504 2.692 2.009 1.027.504 2.263.643 3.488.643 2.178 0 4.04-.78 5.587-2.339 1.537-1.568 2.305-3.473 2.305-5.714 0-2.195-.778-4.072-2.334-5.631-1.555-1.56-3.427-2.34-5.614-2.34-1.264 0-2.414.17-3.432.701-1.028.533-1.919 1.115-2.692 2.18V7.842h-1.951zm7.92 8.183a5.98 5.98 0 013.054.812 5.932 5.932 0 012.235 2.255c.546.971.82 1.998.82 3.082 0 1.073-.278 2.1-.835 3.081a6.113 6.113 0 01-2.234 2.297 5.978 5.978 0 01-3.027.813 6.236 6.236 0 01-3.083-.813c-.97-.541-1.716-1.274-2.234-2.199-.528-.924-.792-1.965-.792-3.123 0-1.765.59-3.24 1.768-4.426 1.169-1.186 2.611-1.78 4.327-1.78z" fill="#fff"/><circle cx="64.221" cy="21.596" r="21.596" fill="#6ADF91"/><path d="M73.58 12.958l-8.248 19.436-12.629-11.999 20.876-7.437zm43.357 11.369l1.658.871c-.543 1.069-1.171 1.93-1.883 2.587a7.583 7.583 0 01-2.404 1.504c-.89.337-1.897.506-3.022.506-2.493 0-4.442-.815-5.847-2.446-1.406-1.64-2.109-3.49-2.109-5.552 0-1.94.595-3.67 1.785-5.187 1.509-1.93 3.528-2.896 6.059-2.896 2.605 0 4.685.989 6.241 2.966 1.106 1.396 1.668 3.14 1.687 5.23h-13.748c.038 1.78.605 3.241 1.701 4.385 1.096 1.134 2.451 1.7 4.062 1.7.778 0 1.533-.135 2.264-.407.74-.272 1.368-.633 1.883-1.082.516-.45 1.073-1.176 1.673-2.18zm0-4.119c-.263-1.05-.647-1.888-1.153-2.516-.496-.628-1.157-1.134-1.982-1.518a6.082 6.082 0 00-2.6-.576c-1.5 0-2.788.482-3.866 1.448-.787.702-1.382 1.757-1.785 3.162h11.386zm20.38-6.037v15.24h-1.952V27.15c-.83 1-1.655 1.505-2.692 2.009-1.027.504-2.263.643-3.488.643-2.178 0-4.041-.78-5.587-2.339-1.537-1.568-2.305-3.473-2.305-5.714 0-2.195.778-4.072 2.333-5.63 1.556-1.56 3.428-2.34 5.615-2.34 1.264 0 2.414.168 3.432.7 1.028.533 1.919 1.115 2.692 2.18V14.17h1.952zm-7.92 1.499a5.98 5.98 0 00-3.055.812c-.934.533-1.678 1.284-2.235 2.255a6.184 6.184 0 00-.82 3.082c0 1.074.278 2.1.834 3.081a6.123 6.123 0 002.235 2.297 5.98 5.98 0 003.027.813 6.235 6.235 0 003.083-.813c.971-.541 1.716-1.274 2.234-2.199.528-.924.792-1.965.792-3.123 0-1.765-.589-3.24-1.768-4.426-1.169-1.186-2.611-1.78-4.327-1.78zm26.602-8.183V29.41h-1.952v-2.26c-.829 1-1.654 1.505-2.691 2.009-1.028.504-2.263.644-3.489.644-2.178 0-4.04-.78-5.586-2.34-1.537-1.568-2.305-3.473-2.305-5.714 0-2.195.777-4.072 2.333-5.63 1.556-1.56 3.427-2.34 5.615-2.34 1.263 0 2.414.168 3.432.7 1.028.533 1.918 1.115 2.691 2.18V7.486h1.952zm-7.92 8.183c-1.103 0-2.121.27-3.055.812a5.931 5.931 0 00-2.234 2.255 6.185 6.185 0 00-.82 3.082c0 1.074.278 2.1.834 3.081a6.108 6.108 0 002.235 2.297 5.973 5.973 0 003.026.813 6.232 6.232 0 003.083-.813c.971-.541 1.716-1.274 2.235-2.199.528-.924.792-1.965.792-3.123 0-1.765-.59-3.24-1.768-4.426-1.169-1.186-2.612-1.78-4.328-1.78zM99.116 29.607h2.696v-1.746h-2.696a2.6 2.6 0 01-1.097-.237 2.801 2.801 0 01-1.473-1.477 2.705 2.705 0 01-.219-1.075V7.653h-1.76v17.42a4.423 4.423 0 001.326 3.2l.004.004c.413.414.895.74 1.448.977a4.42 4.42 0 001.77.353z" fill="#fff"/><path fill-rule="evenodd" clip-rule="evenodd" d="M102.011 29.807v-2.146h-2.895a2.4 2.4 0 01-1.014-.218l-.004-.002a2.599 2.599 0 01-1.368-1.373 2.506 2.506 0 01-.203-.996V7.453h-2.16v17.62a4.622 4.622 0 001.385 3.342l.003.003c.432.432.935.772 1.51 1.02a4.63 4.63 0 001.85.37h2.896zm-6.114-1.53l-.005-.004a4.43 4.43 0 01-1.326-3.2V7.652h1.76v17.42c0 .373.074.733.22 1.074a2.8 2.8 0 001.472 1.477 2.6 2.6 0 001.097.237h2.696v1.746h-2.696a4.42 4.42 0 01-1.77-.352 4.596 4.596 0 01-1.448-.978z" fill="#fff"/></svg>
